X:231
T:Rakish Paddy
R:reel
M:4/4
L:1/8
K:Ador
|:c4 c2 AB|cBAG Ec c2|Add^c defe| dcAG FGAB|
c4 c2 AB|cBAG EDCE|DEFG ABcA|dcAG F2 D2:|
|:eg g2 ag g2|eg g2 ed^cd|ea a2 ba a2|ea a2 egdg|
eg g2 ag g2|fed^c defg|afge fde^c|dcAG F2 D2:|

